input/img/MembershipApplication.svg

<svg id="Layer_1" data-name="Layer 1" xmlns="http://www.w3.org/2000/svg" viewBox="0 0 120 110"><defs><style>.cls-1{fill:#72137d}</style></defs><path class="cls-1" d="M49.12 40.66H24.6A2.63 2.63 0 0 1 22.19 37a16 16 0 0 1 5.87-7 10 10 0 1 1 18.85-4.85A10.14 10.14 0 0 1 45.67 30a16 16 0 0 1 5.86 7 2.62 2.62 0 0 1-2.41 3.65zm-19.54-5.24h14.56a10.68 10.68 0 0 0-3.44-2.15 2.62 2.62 0 0 1-.7-4.45 4.81 4.81 0 1 0-6.17 0 2.62 2.62 0 0 1-.83 4.45 10.83 10.83 0 0 0-3.42 2.15zM106.64 43.89H95.17a2.62 2.62 0 0 1-2.62-2.62v-3.9a8.36 8.36 0 1 1 16.71 0v3.9a2.62 2.62 0 0 1-2.62 2.62zm-8.85-5.24H104v-1.28a3.12 3.12 0 1 0-6.23 0z"/><path class="cls-1" d="M106.64 99H95.17a2.62 2.62 0 0 1-2.62-2.62V41.27a2.62 2.62 0 0 1 2.62-2.62h11.47a2.62 2.62 0 0 1 2.62 2.62v55.09a2.62 2.62 0 0 1-2.62 2.64zm-8.85-5.24H104V43.89h-6.21z"/><path class="cls-1" d="M100.91 110a2.62 2.62 0 0 1-2.33-1.41l-5.73-11a2.62 2.62 0 0 1 2.32-3.83h11.47a2.63 2.63 0 0 1 2.36 3.81l-5.74 11a2.61 2.61 0 0 1-2.35 1.43zm-1.42-11l1.42 2.73 1.42-2.73zM88.17 110H13.36a2.62 2.62 0 0 1-2.62-2.62V2.62A2.62 2.62 0 0 1 13.36 0H62a2.65 2.65 0 0 1 1.86.77L90 27a2.6 2.6 0 0 1 .76 1.85v78.57a2.62 2.62 0 0 1-2.59 2.58zM16 104.76h69.56V29.89L60.9 5.24H16z"/><path class="cls-1" d="M88.17 31.43H69.06a9.71 9.71 0 0 1-9.7-9.7V2.62A2.62 2.62 0 0 1 63.84.77L90 27a2.62 2.62 0 0 1-1.86 4.47zM64.6 8.94v12.79a4.46 4.46 0 0 0 4.46 4.46h12.79zM75.08 57.37H40.59a2.62 2.62 0 0 1 0-5.24h34.49a2.62 2.62 0 1 1 0 5.24zM75.08 74.13H40.59a2.62 2.62 0 0 1 0-5.24h34.49a2.62 2.62 0 1 1 0 5.24zM75.08 90.89H40.59a2.62 2.62 0 1 1 0-5.24h34.49a2.62 2.62 0 1 1 0 5.24zM32.55 61.24H24.6a2.62 2.62 0 0 1-2.6-2.62v-7.94a2.62 2.62 0 0 1 2.62-2.62h7.95a2.62 2.62 0 0 1 2.62 2.62v7.94a2.62 2.62 0 0 1-2.64 2.62zM27.22 56h2.71v-2.7h-2.71zM32.55 78H24.6a2.62 2.62 0 0 1-2.6-2.62v-7.94a2.62 2.62 0 0 1 2.62-2.62h7.95a2.62 2.62 0 0 1 2.62 2.62v7.94A2.62 2.62 0 0 1 32.55 78zm-5.33-5.23h2.71v-2.71h-2.71zM32.55 94.77H24.6a2.63 2.63 0 0 1-2.6-2.62v-8a2.62 2.62 0 0 1 2.62-2.62h7.95a2.62 2.62 0 0 1 2.62 2.62v8a2.62 2.62 0 0 1-2.64 2.62zm-5.33-5.24h2.71v-2.71h-2.71z"/></svg>

<svg id="Layer_1" data-name="Layer 1" xmlns="http://www.w3.org/2000/svg" viewBox="0 0 120 110">
  <defs>
    <style>
      .cls-1 {
        fill: #72137d;
      }
    </style>
  </defs>
  <g>
    <path class="cls-1" d="M49.12,40.66H24.6A2.63,2.63,0,0,1,22.19,37a16,16,0,0,1,5.87-7,10,10,0,1,1,18.85-4.85A10.14,10.14,0,0,1,45.67,30a16,16,0,0,1,5.86,7,2.62,2.62,0,0,1-2.41,3.65ZM29.58,35.42H44.14a10.68,10.68,0,0,0-3.44-2.15A2.62,2.62,0,0,1,40,28.82a4.81,4.81,0,1,0-6.17,0A2.62,2.62,0,0,1,33,33.27,10.83,10.83,0,0,0,29.58,35.42Z"/>
    <g>
      <path class="cls-1" d="M106.64,43.89H95.17a2.62,2.62,0,0,1-2.62-2.62v-3.9a8.36,8.36,0,1,1,16.71,0v3.9A2.62,2.62,0,0,1,106.64,43.89Zm-8.85-5.24H104V37.37a3.12,3.12,0,1,0-6.23,0Z"/>
      <path class="cls-1" d="M106.64,99H95.17a2.62,2.62,0,0,1-2.62-2.62V41.27a2.62,2.62,0,0,1,2.62-2.62h11.47a2.62,2.62,0,0,1,2.62,2.62V96.36A2.62,2.62,0,0,1,106.64,99Zm-8.85-5.24H104V43.89H97.79Z"/>
      <path class="cls-1" d="M100.91,110a2.62,2.62,0,0,1-2.33-1.41l-5.73-11a2.62,2.62,0,0,1,2.32-3.83h11.47A2.63,2.63,0,0,1,109,97.57l-5.74,11A2.61,2.61,0,0,1,100.91,110ZM99.49,99l1.42,2.73L102.33,99Z"/>
    </g>
    <path class="cls-1" d="M88.17,110H13.36a2.62,2.62,0,0,1-2.62-2.62V2.62A2.62,2.62,0,0,1,13.36,0H62a2.65,2.65,0,0,1,1.86.77L90,27a2.6,2.6,0,0,1,.76,1.85v78.57A2.62,2.62,0,0,1,88.17,110ZM16,104.76H85.56V29.89L60.9,5.24H16Z"/>
    <path class="cls-1" d="M88.17,31.43H69.06a9.71,9.71,0,0,1-9.7-9.7V2.62A2.62,2.62,0,0,1,63.84.77L90,27a2.62,2.62,0,0,1-1.86,4.47ZM64.6,8.94V21.73a4.46,4.46,0,0,0,4.46,4.46H81.85Z"/>
    <path class="cls-1" d="M75.08,57.37H40.59a2.62,2.62,0,0,1,0-5.24H75.08a2.62,2.62,0,1,1,0,5.24Z"/>
    <path class="cls-1" d="M75.08,74.13H40.59a2.62,2.62,0,0,1,0-5.24H75.08a2.62,2.62,0,1,1,0,5.24Z"/>
    <path class="cls-1" d="M75.08,90.89H40.59a2.62,2.62,0,1,1,0-5.24H75.08a2.62,2.62,0,1,1,0,5.24Z"/>
    <path class="cls-1" d="M32.55,61.24H24.6A2.62,2.62,0,0,1,22,58.62V50.68a2.62,2.62,0,0,1,2.62-2.62h7.95a2.62,2.62,0,0,1,2.62,2.62v7.94A2.62,2.62,0,0,1,32.55,61.24ZM27.22,56h2.71V53.3H27.22Z"/>
    <path class="cls-1" d="M32.55,78H24.6A2.62,2.62,0,0,1,22,75.38V67.44a2.62,2.62,0,0,1,2.62-2.62h7.95a2.62,2.62,0,0,1,2.62,2.62v7.94A2.62,2.62,0,0,1,32.55,78Zm-5.33-5.23h2.71V70.06H27.22Z"/>
    <path class="cls-1" d="M32.55,94.77H24.6A2.63,2.63,0,0,1,22,92.15v-8a2.62,2.62,0,0,1,2.62-2.62h7.95a2.62,2.62,0,0,1,2.62,2.62v8A2.62,2.62,0,0,1,32.55,94.77Zm-5.33-5.24h2.71V86.82H27.22Z"/>
  </g>
</svg>
